img/illustrations/Payment_of_tax.svg

<svg width="145" height="145" viewBox="0 0 145 145" fill="none" xmlns="http://www.w3.org/2000/svg">
<path d="M5 121H14.77" stroke="#007B64" stroke-width="2" stroke-linecap="round" stroke-linejoin="round"/>
<path d="M18.8101 121H139.2" stroke="#007B64" stroke-width="2" stroke-linecap="round" stroke-linejoin="round"/>
<path d="M92.6299 43.76V115C92.6299 116.591 91.9977 118.117 90.8725 119.243C89.7473 120.368 88.2212 121 86.6299 121H32.6299C31.0386 121 29.5125 120.368 28.3872 119.243C27.262 118.117 26.6299 116.591 26.6299 115V31C26.6299 29.4087 27.262 27.8826 28.3872 26.7574C29.5125 25.6321 31.0386 25 32.6299 25H75.1399L92.6299 43.5" fill="white"/>
<path d="M26.5698 112.5H92.5698V113.5C92.5698 114.419 92.3888 115.33 92.037 116.179C91.6852 117.028 91.1696 117.8 90.5196 118.45C89.8696 119.1 89.0979 119.615 88.2486 119.967C87.3993 120.319 86.4891 120.5 85.5698 120.5H33.5698C31.7133 120.5 29.9328 119.763 28.6201 118.45C27.3073 117.137 26.5698 115.357 26.5698 113.5V112.5V112.5Z" fill="#F1F1F1"/>
<path d="M92.6299 59.33V115C92.6299 115.788 92.4747 116.568 92.1732 117.296C91.8716 118.024 91.4297 118.685 90.8725 119.243C90.3154 119.8 89.6539 120.242 88.926 120.543C88.198 120.845 87.4178 121 86.6299 121H32.6299C31.0386 121 29.5125 120.368 28.3872 119.243C27.262 118.117 26.6299 116.591 26.6299 115V31C26.6299 29.4087 27.262 27.8826 28.3872 26.7574C29.5125 25.6321 31.0386 25 32.6299 25H74.7099C74.8453 25.0018 74.979 25.0311 75.1027 25.0861C75.2265 25.1411 75.3378 25.2207 75.4299 25.32L92.6299 43.5" stroke="#007B64" stroke-width="2" stroke-linecap="round" stroke-linejoin="round"/>
<path d="M92.6299 43.76V50.89" stroke="#007B64" stroke-width="2" stroke-linecap="round" stroke-linejoin="round"/>
<path d="M84.6299 43.5H79.6299C78.0386 43.5 76.5125 42.8679 75.3872 41.7426C74.262 40.6174 73.6299 39.0913 73.6299 37.5V32.5" stroke="#007B64" stroke-width="2" stroke-linecap="round" stroke-linejoin="round"/>
<path d="M38.6299 54.75H68.9299" stroke="#007B64" stroke-width="2" stroke-linecap="round" stroke-linejoin="round"/>
<path d="M34.6302 55.7C35.1548 55.7 35.5802 55.2747 35.5802 54.75C35.5802 54.2253 35.1548 53.8 34.6302 53.8C34.1055 53.8 33.6802 54.2253 33.6802 54.75C33.6802 55.2747 34.1055 55.7 34.6302 55.7Z" fill="#007B64"/>
<path d="M38.6299 62.93H68.9299" stroke="#007B64" stroke-width="2" stroke-linecap="round" stroke-linejoin="round"/>
<path d="M34.6302 63.88C35.1548 63.88 35.5802 63.4547 35.5802 62.93C35.5802 62.4053 35.1548 61.98 34.6302 61.98C34.1055 61.98 33.6802 62.4053 33.6802 62.93C33.6802 63.4547 34.1055 63.88 34.6302 63.88Z" fill="#007B64"/>
<path d="M38.6299 71.11H68.9299" stroke="#007B64" stroke-width="2" stroke-linecap="round" stroke-linejoin="round"/>
<path d="M34.6302 72.06C35.1548 72.06 35.5802 71.6347 35.5802 71.11C35.5802 70.5853 35.1548 70.16 34.6302 70.16C34.1055 70.16 33.6802 70.5853 33.6802 71.11C33.6802 71.6347 34.1055 72.06 34.6302 72.06Z" fill="#007B64"/>
<path d="M38.6299 79.29H68.9299" stroke="#007B64" stroke-width="2" stroke-linecap="round" stroke-linejoin="round"/>
<path d="M34.6302 80.24C35.1548 80.24 35.5802 79.8147 35.5802 79.29C35.5802 78.7653 35.1548 78.34 34.6302 78.34C34.1055 78.34 33.6802 78.7653 33.6802 79.29C33.6802 79.8147 34.1055 80.24 34.6302 80.24Z" fill="#007B64"/>
<path d="M38.6299 87.47H68.9299" stroke="#007B64" stroke-width="2" stroke-linecap="round" stroke-linejoin="round"/>
<path d="M34.6302 88.42C35.1548 88.42 35.5802 87.9947 35.5802 87.47C35.5802 86.9453 35.1548 86.52 34.6302 86.52C34.1055 86.52 33.6802 86.9453 33.6802 87.47C33.6802 87.9947 34.1055 88.42 34.6302 88.42Z" fill="#007B64"/>
<path d="M38.6299 95.65H68.9299" stroke="#007B64" stroke-width="2" stroke-linecap="round" stroke-linejoin="round"/>
<path d="M34.6302 96.6C35.1548 96.6 35.5802 96.1747 35.5802 95.65C35.5802 95.1253 35.1548 94.7 34.6302 94.7C34.1055 94.7 33.6802 95.1253 33.6802 95.65C33.6802 96.1747 34.1055 96.6 34.6302 96.6Z" fill="#007B64"/>
<path d="M121.46 120.64H79.4602C78.2747 120.64 77.1378 120.169 76.2995 119.331C75.4612 118.492 74.9902 117.356 74.9902 116.17V61.73C74.9929 60.5462 75.465 59.4118 76.303 58.5757C77.141 57.7396 78.2764 57.27 79.4602 57.27H121.46C122.644 57.27 123.779 57.7396 124.617 58.5757C125.455 59.4118 125.928 60.5462 125.93 61.73V116.17C125.93 117.356 125.459 118.492 124.621 119.331C123.783 120.169 122.646 120.64 121.46 120.64V120.64Z" fill="white"/>
<path d="M88.9302 119.83C88.9302 119.83 92.9302 114.83 100.93 115.83C108.93 116.83 123.93 112.83 125.93 110.83V116.83L124.93 118.83L122.93 120.83H88.9302V119.83Z" fill="#F1F1F1"/>
<path d="M125.93 79.1V116.17C125.93 117.356 125.459 118.492 124.621 119.331C123.783 120.169 122.646 120.64 121.46 120.64H79.4602C78.2747 120.64 77.1378 120.169 76.2995 119.331C75.4612 118.492 74.9902 117.356 74.9902 116.17V61.73C74.9929 60.5462 75.465 59.4118 76.303 58.5757C77.141 57.7396 78.2764 57.27 79.4602 57.27H121.46C122.644 57.27 123.779 57.7396 124.617 58.5757C125.455 59.4118 125.928 60.5462 125.93 61.73V69.83" stroke="#007B64" stroke-width="2" stroke-miterlimit="10" stroke-linecap="round"/>
<path d="M117.59 77.42H83.3502C82.922 77.4228 82.5098 77.2581 82.2015 76.961C81.8931 76.6639 81.7132 76.258 81.7002 75.83V67.41C81.7002 66.9724 81.874 66.5527 82.1835 66.2433C82.4929 65.9339 82.9126 65.76 83.3502 65.76H117.59C118.028 65.76 118.447 65.9339 118.757 66.2433C119.066 66.5527 119.24 66.9724 119.24 67.41V75.83C119.227 76.258 119.047 76.6639 118.739 76.961C118.431 77.2581 118.018 77.4228 117.59 77.42V77.42Z" fill="#FFC463"/>
<path d="M87.07 82.5H82.56C82.1237 82.5 81.77 82.8537 81.77 83.29V87.8C81.77 88.2363 82.1237 88.59 82.56 88.59H87.07C87.5063 88.59 87.86 88.2363 87.86 87.8V83.29C87.86 82.8537 87.5063 82.5 87.07 82.5Z" stroke="#007B64" stroke-width="2" stroke-miterlimit="10"/>
<path d="M97.4899 82.5H92.9799C92.5436 82.5 92.1899 82.8537 92.1899 83.29V87.8C92.1899 88.2363 92.5436 88.59 92.9799 88.59H97.4899C97.9262 88.59 98.2799 88.2363 98.2799 87.8V83.29C98.2799 82.8537 97.9262 82.5 97.4899 82.5Z" stroke="#007B64" stroke-width="2" stroke-miterlimit="10"/>
<path d="M107.92 82.5H103.41C102.974 82.5 102.62 82.8537 102.62 83.29V87.8C102.62 88.2363 102.974 88.59 103.41 88.59H107.92C108.356 88.59 108.71 88.2363 108.71 87.8V83.29C108.71 82.8537 108.356 82.5 107.92 82.5Z" stroke="#007B64" stroke-width="2" stroke-miterlimit="10"/>
<path d="M118.34 82.5H113.83C113.394 82.5 113.04 82.8537 113.04 83.29V87.8C113.04 88.2363 113.394 88.59 113.83 88.59H118.34C118.776 88.59 119.13 88.2363 119.13 87.8V83.29C119.13 82.8537 118.776 82.5 118.34 82.5Z" stroke="#007B64" stroke-width="2" stroke-miterlimit="10"/>
<path d="M87.07 93.66H82.56C82.1237 93.66 81.77 94.0137 81.77 94.45V98.96C81.77 99.3963 82.1237 99.75 82.56 99.75H87.07C87.5063 99.75 87.86 99.3963 87.86 98.96V94.45C87.86 94.0137 87.5063 93.66 87.07 93.66Z" stroke="#007B64" stroke-width="2" stroke-miterlimit="10"/>
<path d="M97.4899 93.66H92.9799C92.5436 93.66 92.1899 94.0137 92.1899 94.45V98.96C92.1899 99.3963 92.5436 99.75 92.9799 99.75H97.4899C97.9262 99.75 98.2799 99.3963 98.2799 98.96V94.45C98.2799 94.0137 97.9262 93.66 97.4899 93.66Z" stroke="#007B64" stroke-width="2" stroke-miterlimit="10"/>
<path d="M107.92 93.66H103.41C102.974 93.66 102.62 94.0137 102.62 94.45V98.96C102.62 99.3963 102.974 99.75 103.41 99.75H107.92C108.356 99.75 108.71 99.3963 108.71 98.96V94.45C108.71 94.0137 108.356 93.66 107.92 93.66Z" stroke="#007B64" stroke-width="2" stroke-miterlimit="10"/>
<path d="M118.34 93.66H113.83C113.394 93.66 113.04 94.0137 113.04 94.45V98.96C113.04 99.3963 113.394 99.75 113.83 99.75H118.34C118.776 99.75 119.13 99.3963 119.13 98.96V94.45C119.13 94.0137 118.776 93.66 118.34 93.66Z" stroke="#007B64" stroke-width="2" stroke-miterlimit="10"/>
<path d="M87.07 104.81H82.56C82.1237 104.81 81.77 105.164 81.77 105.6V110.11C81.77 110.546 82.1237 110.9 82.56 110.9H87.07C87.5063 110.9 87.86 110.546 87.86 110.11V105.6C87.86 105.164 87.5063 104.81 87.07 104.81Z" stroke="#007B64" stroke-width="2" stroke-miterlimit="10"/>
<path d="M97.4899 104.81H92.9799C92.5436 104.81 92.1899 105.164 92.1899 105.6V110.11C92.1899 110.546 92.5436 110.9 92.9799 110.9H97.4899C97.9262 110.9 98.2799 110.546 98.2799 110.11V105.6C98.2799 105.164 97.9262 104.81 97.4899 104.81Z" stroke="#007B64" stroke-width="2" stroke-miterlimit="10"/>
<path d="M107.92 104.81H103.41C102.974 104.81 102.62 105.164 102.62 105.6V110.11C102.62 110.546 102.974 110.9 103.41 110.9H107.92C108.356 110.9 108.71 110.546 108.71 110.11V105.6C108.71 105.164 108.356 104.81 107.92 104.81Z" stroke="#007B64" stroke-width="2" stroke-miterlimit="10"/>
<path d="M118.34 104.81H113.83C113.394 104.81 113.04 105.164 113.04 105.6V110.11C113.04 110.546 113.394 110.9 113.83 110.9H118.34C118.776 110.9 119.13 110.546 119.13 110.11V105.6C119.13 105.164 118.776 104.81 118.34 104.81Z" stroke="#007B64" stroke-width="2" stroke-miterlimit="10"/>
</svg>

<svg width="145" height="145" fill="none" xmlns="http://www.w3.org/2000/svg"><path d="M5 121h9.77m4.04 0H139.2" stroke="#007B64" stroke-width="2" stroke-linecap="round" stroke-linejoin="round"/><path d="M92.63 43.76V115a6.003 6.003 0 01-6 6h-54a6 6 0 01-6-6V31a6 6 0 016-6h42.51l17.49 18.5" fill="#fff"/><path d="M26.57 112.5h66v1a7 7 0 01-7 7h-52a6.999 6.999 0 01-7-7v-1z" fill="#F1F1F1"/><path d="M92.63 59.33V115a6 6 0 01-6 6h-54a6 6 0 01-6-6V31a6 6 0 016-6h42.08a1 1 0 01.72.32l17.2 18.18m0 .26v7.13" stroke="#007B64" stroke-width="2" stroke-linecap="round" stroke-linejoin="round"/><path d="M84.63 43.5h-5a6 6 0 01-6-6v-5m-35 22.25h30.3" stroke="#007B64" stroke-width="2" stroke-linecap="round" stroke-linejoin="round"/><path d="M34.63 55.7a.95.95 0 100-1.9.95.95 0 000 1.9z" fill="#007B64"/><path d="M38.63 62.93h30.3" stroke="#007B64" stroke-width="2" stroke-linecap="round" stroke-linejoin="round"/><path d="M34.63 63.88a.95.95 0 100-1.9.95.95 0 000 1.9z" fill="#007B64"/><path d="M38.63 71.11h30.3" stroke="#007B64" stroke-width="2" stroke-linecap="round" stroke-linejoin="round"/><path d="M34.63 72.06a.95.95 0 100-1.9.95.95 0 000 1.9z" fill="#007B64"/><path d="M38.63 79.29h30.3" stroke="#007B64" stroke-width="2" stroke-linecap="round" stroke-linejoin="round"/><path d="M34.63 80.24a.95.95 0 100-1.9.95.95 0 000 1.9z" fill="#007B64"/><path d="M38.63 87.47h30.3" stroke="#007B64" stroke-width="2" stroke-linecap="round" stroke-linejoin="round"/><path d="M34.63 88.42a.95.95 0 100-1.9.95.95 0 000 1.9z" fill="#007B64"/><path d="M38.63 95.65h30.3" stroke="#007B64" stroke-width="2" stroke-linecap="round" stroke-linejoin="round"/><path d="M34.63 96.6a.95.95 0 100-1.9.95.95 0 000 1.9z" fill="#007B64"/><path d="M121.46 120.64h-42a4.47 4.47 0 01-4.47-4.47V61.73a4.47 4.47 0 014.47-4.46h42a4.47 4.47 0 014.47 4.46v54.44a4.472 4.472 0 01-4.47 4.47z" fill="#fff"/><path d="M88.93 119.83s4-5 12-4 23-3 25-5v6l-1 2-2 2h-34v-1z" fill="#F1F1F1"/><path d="M125.93 79.1v37.07a4.472 4.472 0 01-4.47 4.47h-42a4.47 4.47 0 01-4.47-4.47V61.73a4.47 4.47 0 014.47-4.46h42a4.47 4.47 0 014.47 4.46v8.1" stroke="#007B64" stroke-width="2" stroke-miterlimit="10" stroke-linecap="round"/><path d="M117.59 77.42H83.35a1.64 1.64 0 01-1.65-1.59v-8.42a1.65 1.65 0 011.65-1.65h34.24a1.651 1.651 0 011.65 1.65v8.42a1.64 1.64 0 01-1.65 1.59z" fill="#FFC463"/><path d="M87.07 82.5h-4.51a.79.79 0 00-.79.79v4.51c0 .436.354.79.79.79h4.51a.79.79 0 00.79-.79v-4.51a.79.79 0 00-.79-.79zm10.42 0h-4.51a.79.79 0 00-.79.79v4.51c0 .436.354.79.79.79h4.51a.79.79 0 00.79-.79v-4.51a.79.79 0 00-.79-.79zm10.43 0h-4.51a.79.79 0 00-.79.79v4.51c0 .436.354.79.79.79h4.51a.79.79 0 00.79-.79v-4.51a.79.79 0 00-.79-.79zm10.42 0h-4.51a.79.79 0 00-.79.79v4.51c0 .436.354.79.79.79h4.51a.79.79 0 00.79-.79v-4.51a.79.79 0 00-.79-.79zM87.07 93.66h-4.51a.79.79 0 00-.79.79v4.51c0 .436.354.79.79.79h4.51a.79.79 0 00.79-.79v-4.51a.79.79 0 00-.79-.79zm10.42 0h-4.51a.79.79 0 00-.79.79v4.51c0 .436.354.79.79.79h4.51a.79.79 0 00.79-.79v-4.51a.79.79 0 00-.79-.79zm10.43 0h-4.51a.79.79 0 00-.79.79v4.51c0 .436.354.79.79.79h4.51a.79.79 0 00.79-.79v-4.51a.79.79 0 00-.79-.79zm10.42 0h-4.51a.79.79 0 00-.79.79v4.51c0 .436.354.79.79.79h4.51a.79.79 0 00.79-.79v-4.51a.79.79 0 00-.79-.79zm-31.27 11.15h-4.51a.79.79 0 00-.79.79v4.51c0 .436.354.79.79.79h4.51a.79.79 0 00.79-.79v-4.51a.79.79 0 00-.79-.79zm10.42 0h-4.51a.79.79 0 00-.79.79v4.51c0 .436.354.79.79.79h4.51a.79.79 0 00.79-.79v-4.51a.79.79 0 00-.79-.79zm10.43 0h-4.51a.79.79 0 00-.79.79v4.51c0 .436.354.79.79.79h4.51a.79.79 0 00.79-.79v-4.51a.79.79 0 00-.79-.79zm10.42 0h-4.51a.79.79 0 00-.79.79v4.51c0 .436.354.79.79.79h4.51a.79.79 0 00.79-.79v-4.51a.79.79 0 00-.79-.79z" stroke="#007B64" stroke-width="2" stroke-miterlimit="10"/></svg>
